X:647
M:C
L:1/8
K:D
g|f<ad<a c<aA<a|f<ad<f g<(ee)f/g/|f<ad<a c<aA<g|f>d f/e/d/c/ d<D D>g|
f<ad<a c<aA<a|f<ad<f g<(ee)f/g/|f<de<c d>B A<F|G>B A<F D<dd||

